app/dist/common/images/orbis-ag.svg

<svg height="18" viewBox="0 0 18 18" width="18" xmlns="http://www.w3.org/2000/svg"><path d="m0 0h18v18h-18z" fill="#f0f3fa"/><path d="m11.57 5.4-1.23 1.2 1.23 1.2 1.22-1.2zm-2.45-2.4-1.22 1.2 1.22 1.2 1.22-1.2zm2.45 7.2-1.23 1.2 1.23 1.2 1.22-1.2zm-2.45-2.4-1.22 1.2 1.22 1.2 1.22-1.2zm-2.45-2.4-1.22 1.2 1.22 1.2 1.23-1.2zm2.45 7.2-1.22 1.2 1.22 1.2 1.22-1.2zm-2.45-2.4-1.22 1.2 1.22 1.2 1.23-1.2zm-2.45-2.4-1.22 1.2 1.22 1.2 1.23-1.2z" fill="#b2b2b2"/><path d="m12.87 9 1.13 1.15 1.12-1.15-1.12-1.15zm-.87 0c0-1.1.92-2 2-2s2 .9 2 2-.92 2-2 2-2-.9-2-2z" fill="#164194"/></svg>

<!-- by TradingView --><svg width="18" height="18" viewBox="0 0 18 18" xmlns="http://www.w3.org/2000/svg"><path fill="#F0F3FA" d="M0 0h18v18H0z"/><path d="m11.57 5.4-1.23 1.2 1.23 1.2 1.22-1.2-1.22-1.2ZM9.12 3 7.9 4.2l1.22 1.2 1.22-1.2L9.12 3ZM11.57 10.2l-1.23 1.2 1.23 1.2 1.22-1.2-1.22-1.2ZM9.12 7.8 7.9 9l1.22 1.2L10.34 9 9.12 7.8ZM6.67 5.4 5.45 6.6l1.22 1.2L7.9 6.6 6.67 5.4ZM9.12 12.6 7.9 13.8 9.12 15l1.22-1.2-1.22-1.2ZM6.67 10.2l-1.22 1.2 1.22 1.2 1.23-1.2-1.23-1.2ZM4.22 7.8 3 9l1.22 1.2L5.45 9 4.22 7.8Z" fill="#B2B2B2"/><path d="M12.87 9 14 10.15 15.12 9 14 7.85 12.87 9ZM12 9c0-1.1.92-2 2-2s2 .9 2 2-.92 2-2 2-2-.9-2-2Z" fill="#164194"/></svg>
